X: 4
T: Eanach Mhic Coilin
R: reel
M: 4/4
L: 1/8
K: Gmaj
d2 c|:BE ~E2 DEGA|BE ~E2 d2 BA|BE ~E2 DEGA|BedB ABGA:||:~B2 ed c/2B/2A GA|~d2 ef g2 ag|eged c/2B/2A GA|BedB ABGA:|


Tune 78	Setting 78

